X:1
T:Sangerhilsen
T:Sangerhilsen
T:Landsmøte 2018
T:Sigurd Lie
C:Sigurd Lie
%%score [ 1 2 3 4 ]
L:1/8
M:4/4
K:F
V:1 treble nm="Soprano"
V:2 treble nm="Alto"
V:3 treble-8 nm="Tenor"
V:4 bass nm="Bass"
V:1
 C2 | F3 F E2 A,2 | D2 C2 z2 C2 | D2 E2 F2 G2 | A2 F2 B2 A2 | (A4 G2) F2 | A2 G2 z2 F2 | %7
w: Du|Flok hvis Hjer- te|ban- ker Med|fri- ske, var- me|Slag med ly- se|Ung- * doms-|tan- ker I|
w: Er|det- te kun Din|Tan- ke, Da|kro- nes skal Dit|Værk. Du Hæ- der|vil _ Dig|san- ke. Dig|
 E3 F E2 D2 | C4 z2 C2 | D2 D2 G2 G2 | (G2 F>E) F2 F2 | B2 G2 A2 F2 | G4 z2 C2 | c3 c B2 A2 | %14
w: Kreds rundt San- gens|Flag! Sig|kan Du og- saa|fat- * * te Hvor-|for saa trygt Du|staar, Har|fuldt Du lært at|
w: fø- le fri og|stærk. Stævn|fre- mad da paa|Ba- * * nen. Virk|frei- dig for Din|Sag, Bær|løf- tet San- ger-|
 A4 B2 B2 | F3 F G2 G2 | A6 A2 | c3 c B2 D2 | A4 G2 F2 | A3 F A2 G2 | F4 z2 |] %21
w: skat- te Den|Sag, hvor- for Du|slaar? Har|fuldt Du lært at|skat- te Den|Sag, hvor- for Du|slaar?|
w: fa- nen, Dit|plet- fri' skjøn- ne|Flag. Bær|løf- tet San- ger-|fa- nen. Dit|plet- fri' skjøn- ne|Flag.|
V:2
 C2 | F3 F E2 A,2 | D2 C2 z2 C2 | C2 C2 D2 E2 | F2 C2 G2 F2 | F6 F2 | F2 E2 z2 D2 | C3 C C2 =B,2 | %8
w: Du|Flok hvis Hjer- te|ban- ker Med|fri- ske, var- me|Slag med ly- se|Ung- doms-|tan- ker I|Kreds rundt San- gens|
w: Er|det- te kun Din|Tan- ke, Da|kro- nes skal Dit|Værk. Du Hæ- der|vil Dig|san- ke. Dig|fø- le fri og|
 G,4 z2 C2 | D2 D2 D2 D2 | C4 F2 F2 | F2 E2 F2 D2 | E4 z2 C2 | F3 F E2 _E2 | _E4 D2 D2 | %15
w: Flag! Sig|kan Du og- saa|fat- te Hvor-|for saa trygt Du|staar, Har|fuldt Du lært at|skat- te Den|
w: stærk. Stævn|fre- mad da paa|Ba- nen. Virk|frei- dig for Din|Sag, Bær|løf- tet San- ger-|fa- nen, Dit|
 D3 D =E2 E2 | E6 A,2 | _E3 E D2 D2 | _G4 =G2 F2 | F3 C F2 E2 | C4 z2 |] %21
w: Sag, hvor- for Du|slaar? Har|fuldt Du lært at|skat- te Den|Sag, hvor- for Du|slaar?|
w: plet- fri' skjøn- ne|Flag. Bær|løf- tet San- ger-|fa- nen. Dit|plet- fri' skjøn- ne|Flag.|
V:3
 C2 | F3 F E2 A,2 | D2 C2 z2 c2 | c2 c2 c2 c2 | c2 c2 c2 c2 | d6 d2 | c2 c2 z2 A2 | G3 A G2 F2 | %8
w: Du|Flok hvis Hjer- te|ban- ker Med|fri- ske, var- me|Slag med ly- se|Ung- doms-|tan- ker I|Kreds rundt San- gens|
w: Er|det- te kun Din|Tan- ke, Da|kro- nes skal Dit|Værk. Du Hæ- der|vil Dig|san- ke. Dig|fø- le fri og|
 E4 z2 c2 | c2 c2 B2 B2 | A4 d2 d2 | d2 c2 c2 c2 | c4 z2 c2 | c3 c c2 c2 | c4 B2 B2 | d3 d d2 d2 | %16
w: Flag! Sig|kan Du og- saa|fat- te Hvor-|for saa trygt Du|staar, Har|fuldt Du lært at|skat- te Den|Sag, hvor- for Du|
w: stærk. Stævn|fre- mad da paa|Ba- nen. Virk|frei- dig for Din|Sag, Bær|løf- tet San- ger-|fa- nen, Dit|plet- fri' skjøn- ne|
 ^c6 A2 | A3 A B2 B2 | _e4 d2 d2 | c3 A c2 B2 | A4 z2 |] %21
w: slaar? Har|fuldt Du lært at|skat- te Den|Sag, hvor- for Du|slaar?|
w: Flag. Bær|løf- tet San- ger-|fa- nen. Dit|plet- fri' skjøn- ne|Flag.|
V:4
 C,2 | F,3 F, E,2 A,,2 | D,2 C,2 z2 C2 | =B,2 _B,2 A,2 G,2 | F,2 A,2 E,2 F,2 | B,6 =B,2 | %6
w: Du|Flok hvis Hjer- te|ban- ker Med|fri- ske, var- me|Slag med ly- se|Ung- doms-|
w: Er|det- te kun Din|Tan- ke, Da|kro- nes skal Dit|Værk. Du Hæ- der|vil Dig|
 C2 C,2 z2 F,2 | G,3 A, G,2 G,,2 | C,4 z4 | z4 z2 C,2 | A,2 A,2 D,2 D,2 | G,2 C2 F,2 A,2 | %12
w: tan- ker I|Kreds rundt San- gens|Flag!|Sig|fat- ter du hvor-|for saa trygt Du|
w: san- ke. Dig|fø- le fri og|stærk.|Stevn|frem- ad da. Virk|frei- dig for Din|
 C4 z2 C2 | A,3 A, G,2 ^F,2 | ^F,4 G,2 G,2 | B,3 B, B,2 B,2 | A,6 A,2 | ^F,3 F, G,2 G,2 | %18
w: staar, Har|fuldt Du lært at|skat- te Den|Sag, hvor- for Du|slaar? Har|fuldt Du lært, har|
w: Sag, Bær|løf- tet San- ger-|fa- nen, Dit|plet- fri' skjøn- ne|Flag. Bær|løf- tet frem, Bær|
 C3 C B,2 =B,2 | C3 A, C2 C,2 | F,4 z2 |] %21
w: fuldt du lært Den|Sag, hvor- for Du|slaar?|
w: Fa- nen frem, Dit|plet- fri' skjøn- ne|Flag.|

